!!!COM: Vivaldi, Antonio Lucio
!!!CDT: 1678/03/04-1741/08/28
!!!OPR: 12 sonatas for two violins and basso continuo
!!!OTL: Sonata in G major, op. @{OPS}, no. @{ONM} (@{SCT})
!!!OPS: 1
!!!ONM: 1
!!!OMV: 1. Preludio
!!!SCT: RV 73
!!!SCA: Antonio Vivaldi: Thematisch-systematisches Verzeichnis seiner Werke (Ryom-Verzeichnis)
!!!OMD: Grave
!!!key: g
**kern	**dynam	**fb	**kern	**dynam	**kern	**dynam
*part3	*	*	*part2	*	*part1	*
*staff3	*	*	*staff2	*	*staff1	*
*ICstr&ICklav	*	*	*ICstr	*	*ICstr	*
*Icello&Icemba	*	*	*Ivioln	*	*Ivioln	*
*	*	*	*I#2	*	*I#1	*
*I"Violoncello\nContinuo	*	*	*I"Violin 2	*	*I"Violin 1	*
*I'bc	*	*	*I'v2	*	*I'v1	*
*clefF4	*	*	*clefG2	*	*clefG2	*
*k[b-]	*	*	*k[b-]	*	*k[b-]	*
*g:	*	*	*g:	*	*g:	*
*M4/4	*	*	*M4/4	*	*M4/4	*
*met(c)	*	*	*met(c)	*	*met(c)	*
*MM46	*	*	*MM46	*	*MM46	*
=1	=1	=1	=1	=1	=1	=1
4.G\	.	.	4r	.	2r	.
.	.	.	4g/	.	.	.
8A\	.	.	.	.	.	.
4B-y\	.	.	[2dd\	.	4r	.
4Bn\	.	6	.	.	4g/	.
=2	=2	=2	=2	=2	=2	=2
4.c\	.	9 8 -	4dd\]	.	2.ee-X\T	.
.	.	.	4cc\	.	.	.
8B-X\	.	.	.	.	.	.
4A\	.	6 5-r	[2ff\	.	.	.
4B-y\	.	.	.	.	4dd\	.
=3	=3	=3	=3	=3	=3	=3
2G\	.	7	4ff\]	.	4.bb-y\	.
.	.	6-r	2ee-X\	.	.	.
.	.	.	.	.	8ccc\	.
2F#X\	.	7-/	.	.	[2aa\	.
.	.	6 5	(8dd\L	.	.	.
.	.	.	8cc\J)	.	.	.
=4	=4	=4	=4	=4	=4	=4
2G\	.	9 -	4b-y\	.	4aa\]	.
.	.	8 n	4bn\	.	8gg\L	.
.	.	.	.	.	8ff\J	.
2C/	.	5 -	8cc/L	.	4ee-X\	.
.	.	.	8g/J	.	.	.
.	.	6	[4cc\	.	8aa\L	.
.	.	.	.	.	8gg\J	.
=5	=5	=5	=5	=5	=5	=5
4D\	.	7 #	4cc\]	.	4ff#X\	.
8E-X/L	.	5	4b-y\	.	2gg\T	.
8BB-y/J	.	6	.	.	.	.
4C/	.	6 5	2a/t	.	.	.
4D\	.	#	.	.	4ff#y\	.
=6	=6	=6	=6	=6	=6	=6
4G\	.	.	8g/	.	4gg\	.
.	.	.	4dd\	.	.	.
4F#X\	.	6 5	.	.	4r	.
.	.	.	8cc\	.	.	.
4G\	.	.	4b-y\	.	8r	.
.	.	.	.	.	4gg\	.
4BBn/	.	6 5	4dd\	.	.	.
.	.	.	.	.	8ff\	.
!!LO:LB:g=original
=7	=7	=7	=7	=7	=7	=7
4C/	.	-	8g/	.	4ee-X\	.
.	.	.	4cc\	.	.	.
4En\	.	6 5	.	.	4gg\	.
.	.	.	8b-y\	.	.	.
4F\	.	.	4a/	.	8cc\	.
.	.	.	.	.	4ff\	.
4AA/	.	6 5-r	4cc\	.	.	.
.	.	.	.	.	8ee-X\	.
=8	=8	=8	=8	=8	=8	=8
4BB-y/	.	.	4f/	.	8dd\L	.
.	.	.	.	.	(16bb-y\L	.
.	.	.	.	.	16aa\JJ)	.
4B-y\	.	6	4d/	.	8gg\L	.
.	.	.	.	.	(16aa\L	.
.	.	.	.	.	16bb-y\JJ)	.
8A\L	.	#	4e/	.	4cc#X\	.
8G\J	.	.	.	.	.	.
4F\	.	6	8a/L	.	[4dd\	.
.	.	.	(16b-y/L	.	.	.
.	.	.	16a/JJ)	.	.	.
=9	=9	=9	=9	=9	=9	=9
4E\	.	7	8.g/L	.	8dd\L]	.
.	.	.	.	.	16ee\L	.
.	.	.	16f/Jk	.	16dd\JJ	.
4A\	.	7 #	16e/LL	.	8.cc#X\L	.
.	.	.	16f/	.	.	.
.	.	.	16g/	.	.	.
.	.	.	16a/JJ	.	16dd\Jk	.
4.D\	.	.	4f/	.	4dd\	.
.	.	.	4d/	.	4r	.
8E\	.	7 4 2	.	.	.	.
=10	=10	=10	=10	=10	=10	=10
4F\	.	6	2.a/	.	4r	.
4F#X\	.	6	.	.	4d/	.
4.G\	.	9	.	.	[2b-y\	.
.	.	8	4g/	.	.	.
8Fn\	.	.	.	.	.	.
=11	=11	=11	=11	=11	=11	=11
4E-X\	.	6 5	2.cc\	.	4b-y\]	.
4F\	.	.	.	.	4a/	.
2BB-y/	.	9	.	.	[2dd\	.
.	.	8	4b-y\	.	.	.
=12	=12	=12	=12	=12	=12	=12
2C/	.	9 -	2.ee-X\	.	4dd\]	.
.	.	8	.	.	4cc\	.
2D\	.	9-r #	.	.	2ff#X\	.
.	.	8	8dd\L	.	.	.
.	.	.	8cc\J	.	.	.
!!LO:LB:g=original
=13	=13	=13	=13	=13	=13	=13
4E-X\	.	.	8b-y/L	.	4gg\	.
.	.	.	8g/J	.	.	.
8BB-y/L	.	6	[4gg\	.	8r	.
8C/J	.	.	.	.	8bb-y\	.
4D\	.	5 4	8gg\]	.	8aa\L	.
.	.	X 3	4ff\	.	8dd\J	.
4E-X\	.	9	.	.	8gg\L	.
.	.	8	[8ee-X\	.	(16.aa\L	.
.	.	.	.	.	32gg\JJk)	.
=14	=14	=14	=14	=14	=14	=14
4B-y\	.	5 4-r	8ee-y\]	.	8ff\L	.
.	.	X 3	4dd\	.	8b-y\J	.
4c\	.	9 -	.	.	8ee-X\L	.
.	.	8	4cc\	.	(16.ff\L	.
.	.	.	.	.	32ee-y\JJk)	.
8F#X\L	.	6 5	.	.	8.dd\L	.
8G\	.	.	8b-y\	.	.	.
.	.	.	.	.	16gg\k	.
8d\	.	#	8.a/L	.	8.ff#X\	.
8D\J	.	.	.	.	.	.
.	.	.	16g/Jk	.	16gg\Jk	.
=15	=15	=15	=15	=15	=15	=15
4G\	.	.	4g/	.	8gg\L	.
.	.	.	.	.	8g\J	.
8BB-y/L	p	6	8r	.	[4gg\	p
8C/J	.	.	8bb-y\	p	.	.
4D\	.	5 4	8aa\L	.	8gg\]	.
.	.	X 3	8dd\J	.	4ff\	.
4E-X\	.	9	8gg\L	.	.	.
.	.	8	(16.aa\L	.	[8ee-X\	.
.	.	.	32gg\JJk)	.	.	.
=16	=16	=16	=16	=16	=16	=16
4B-y\	.	5-r 4	8ff\L	.	8ee-X\]	.
.	.	X 3	8b-y\J	.	4dd\	.
4c\	.	9 -	8ee-X\L	.	.	.
.	.	8	(16.ff\L	.	4cc\	.
.	.	.	32ee-y\JJk)	.	.	.
8F#X\L	.	6 5	8.dd\L	.	.	.
8G\	.	.	.	.	8b-y\	.
.	.	.	16gg\k	.	.	.
8d\	.	#	8.ff#X\	.	8.a/L	.
8D\J	.	.	.	.	.	.
.	.	.	16gg\Jk	.	16g/Jk	.
=17	=17	=17	=17	=17	=17	=17
4G\	.	.	4gg\	.	8g/L	.
.	.	.	.	.	8dd/J	.
8r	.	.	8r	.	2gg\T	f
8C/	f	-	8ee-X\	f	.	.
8D/L	.	6 4	4b-y\T	.	.	.
8C/	.	.	.	.	.	.
8D/	.	5 #	4a/	.	4ff#X\	.
8DD/J	.	.	.	.	.	.
=18	=18	=18	=18	=18	=18	=18
1GG/	.	.	1g/	.	1gg\	.
==	==	==	==	==	==	==
*-	*-	*-	*-	*-	*-	*-
!!!SMS: RV 73 / Estienne Roger (No. 363), Amsterdam [facs.]
!!!ENC: Fran Bennion  rev. 05/12/21 E Correia
!!!END: 2004/09/20
!!!ONB: Converted from MuseData with musedata2hum on Sat May 11 12:01:52 2024
!!!YEM: (C) 2004, 2019 Center for Computer Assisted Research in the Humanities
!!!system-decoration: [(s1,s2,s3)]
!!!URL-info: https://wiki.ccarh.org/wiki/MuseData:_Antonio_Vivaldi#Op._1:_Suonate_da_camera_a_tr.C3.A8.2C_due_violini_e_violone_o_cembalo Information about Vivaldi Op. 1 on the CCARH wiki
!!!URL-pdf: https://pdf.musedata.org/vivaldi-op01-no01.pdf#page=1 MuseData edition
!!!URL-pdf: https://s9.imslp.org/files/imglnks/usimg/1/18/IMSLP280399-PMLP10351-Vivaldi_Sonatas_Op_1_-_Violino_Primo.pdf#page=3 Violino primo part, Amsterdam: Estienne Roger, n.d.(ca.1723). Plate 363.
!!!URL-pdf: https://s9.imslp.org/files/imglnks/usimg/d/d5/IMSLP280400-PMLP10351-Vivaldi_Sonatas_Op_1_-_Violino_Secondo.pdf#page=3 Violino secondo part, Amsterdam: Estienne Roger, n.d.(ca.1723). Plate 363.
!!!URL-pdf: https://s9.imslp.org/files/imglnks/usimg/8/89/IMSLP280401-PMLP10351-Vivaldi_Sonatas_Op_1_-_Organo_e_Violoncello.pdf#page=3 Organo e Violoncello parts, Amsterdam: Estienne Roger, n.d.(ca.1723). Plate 363.
!!!URL-youtube: https://www.youtube.com/watch?v=P5HHPe_W6Uo&t=1s L'Arte dell'Arco
!!!URL-youtube: https://www.youtube.com/watch?v=vFz1e6g68iQ&t=6s Seattle Baroque Soloists (2010)
!!!title: @{OTL}, mov. @{OMV}
!!!filter-vcross: vcross
!!!EEV: 2024/05/11
!!!source-file: https://bitbucket.org/musedata/vivaldi/src/master/roger/op1/no01/stage2/01/01
!!!source-file: https://bitbucket.org/musedata/vivaldi/src/master/roger/op1/no01/stage2/01/02
!!!source-file: https://bitbucket.org/musedata/vivaldi/src/master/roger/op1/no01/stage2/01/03
!!!source-file: https://bitbucket.org/musedata/vivaldi/src/master/roger/op1/no01/stage2/01/04
